X:1
T:Isabeau S'y Promene
M:6/8
L:1/8
K:Bb
 D| G3 BAc| B3 A3| FAB G2 F| G3- G2 z| GGG d2 =e| dBG c2 c| c2- B A2 z|\
 GGG d2 =e| dBG c2 A| FAc BAB| G3- G z||
